X:624
T:Blue Angel, The
O:england
R:Jig
D:Session tape - Corofin, Clare
M:6/8
L:1/8
K:D
d2e|:fdd dcd|Bdd Add|Gdd Fdd|cBA bag|
fdd dcd|Bdg Adf|GBe FAd|eBc d2e:|
|:fdB BAB|fdB Bcd|cAF FEF|fgf edc|
fdB BAB|fdB Bcd|cAF fge|dBB B3:|


